flaticon/productivity-and-development/settings-3.svg

<svg xmlns="http://www.w3.org/2000/svg" width="32" height="32" viewBox="0 0 24 24">
    <path d="M2.902344 11.335938L2.902344.511719 1.882812.511719 1.882812 11.335938C.792969 11.652344 0 12.960938 0 14.574219 0 16.191406.792969 17.5 1.882812 17.816406L1.882812 23.488281 2.902344 23.488281 2.902344 17.816406C3.988281 17.5 4.78125 16.191406 4.78125 14.574219 4.785156 12.960938 3.988281 11.652344 2.902344 11.335938zM2.390625 16.867188C1.648438 16.867188 1.019531 15.816406 1.019531 14.574219 1.019531 13.332031 1.648438 12.28125 2.390625 12.28125 3.132812 12.28125 3.761719 13.332031 3.761719 14.574219 3.761719 15.816406 3.132812 16.867188 2.390625 16.867188zM9.308594 4.550781L9.308594.511719 8.285156.511719 8.285156 4.550781C7.199219 4.867188 6.40625 6.175781 6.40625 7.789062 6.40625 9.40625 7.199219 10.714844 8.285156 11.03125L8.285156 23.488281 9.308594 23.488281 9.308594 11.03125C10.394531 10.714844 11.1875 9.40625 11.1875 7.789062 11.1875 6.175781 10.394531 4.867188 9.308594 4.550781zM8.796875 10.082031C8.054688 10.082031 7.425781 9.035156 7.425781 7.789062 7.425781 6.546875 8.054688 5.5 8.796875 5.5 9.539062 5.5 10.167969 6.546875 10.167969 7.789062 10.167969 9.035156 9.539062 10.082031 8.796875 10.082031zM15.714844 7.34375L15.714844.511719 14.691406.511719 14.691406 7.34375C13.605469 7.660156 12.8125 8.96875 12.8125 10.585938 12.8125 12.199219 13.605469 13.507812 14.691406 13.824219L14.691406 23.488281 15.714844 23.488281 15.714844 13.824219C16.800781 13.507812 17.59375 12.199219 17.59375 10.585938 17.59375 8.96875 16.800781 7.660156 15.714844 7.34375zM15.203125 12.875C14.460938 12.875 13.832031 11.828125 13.832031 10.585938 13.832031 9.339844 14.460938 8.292969 15.203125 8.292969 15.945312 8.292969 16.574219 9.339844 16.574219 10.585938 16.574219 11.828125 15.945312 12.875 15.203125 12.875zM24 15.773438C24 14.15625 23.207031 12.847656 22.117188 12.53125L22.117188.511719 21.097656.511719 21.097656 12.53125C20.011719 12.847656 19.214844 14.15625 19.214844 15.773438 19.214844 17.386719 20.011719 18.695312 21.097656 19.011719L21.097656 23.488281 22.117188 23.488281 22.117188 19.011719C23.207031 18.695312 24 17.386719 24 15.773438zM21.609375 18.066406C20.867188 18.066406 20.238281 17.015625 20.238281 15.773438 20.238281 14.53125 20.867188 13.480469 21.609375 13.480469 22.351562 13.480469 22.980469 14.53125 22.980469 15.773438 22.980469 17.015625 22.351562 18.066406 21.609375 18.066406zM21.609375 18.066406"/>
</svg>

<svg xmlns="http://www.w3.org/2000/svg" width="32" height="32" viewBox="0 0 24 24">
    <path d="M2.902 11.336V.512h-1.02v10.824C.794 11.652 0 12.96 0 14.574c0 1.617.793 2.926 1.883 3.242v5.672h1.02v-5.672c1.085-.316 1.878-1.625 1.878-3.242.004-1.613-.793-2.922-1.879-3.238zm-.511 5.531c-.743 0-1.371-1.05-1.371-2.293 0-1.242.628-2.293 1.37-2.293.743 0 1.372 1.051 1.372 2.293 0 1.242-.63 2.293-1.371 2.293zm0 0M9.309 4.55V.513H8.285V4.55C7.2 4.867 6.406 6.176 6.406 7.789c0 1.617.793 2.926 1.88 3.242v12.457h1.023V11.031c1.086-.316 1.879-1.625 1.879-3.242 0-1.613-.793-2.922-1.88-3.238zm-.512 5.532c-.742 0-1.371-1.047-1.371-2.293 0-1.242.629-2.289 1.37-2.289.743 0 1.372 1.047 1.372 2.29 0 1.245-.629 2.292-1.371 2.292zm0 0M15.715 7.344V.512H14.69v6.832c-1.086.316-1.879 1.625-1.879 3.242 0 1.613.793 2.922 1.88 3.238v9.664h1.023v-9.664c1.086-.316 1.879-1.625 1.879-3.238 0-1.617-.793-2.926-1.88-3.242zm-.512 5.531c-.742 0-1.371-1.047-1.371-2.29 0-1.245.629-2.292 1.371-2.292s1.371 1.047 1.371 2.293c0 1.242-.629 2.289-1.37 2.289zm0 0M24 15.773c0-1.617-.793-2.925-1.883-3.242V.511h-1.02v12.02c-1.085.317-1.882 1.625-1.882 3.242 0 1.614.797 2.922 1.883 3.239v4.476h1.02v-4.476C23.206 18.695 24 17.387 24 15.773zm-2.39 2.293c-.743 0-1.372-1.05-1.372-2.293 0-1.242.63-2.293 1.371-2.293.743 0 1.371 1.051 1.371 2.293 0 1.243-.628 2.293-1.37 2.293zm0 0"/>
</svg>
